X:309
T:Essex Buildings. (p)1690.PLFD.309
M:6/4
L:1/4
Q:3/4=90
S:Playford, Dancing Master,8th Ed,1690.
O:England
H:1690.
Z:Chris Partington
K:C
g|e>dcdcB|c2cc>de|c2cc>de|d2dd2g|
e>dcdcB|c2cc>de|fgae2d|d3-d2:|
|:d|B>AGB>AG|d2dd2g|e>dce>dc|
f2ffga|e>dcdB2|c3-c2:|
